X: 12876
T: Ferny Hill
R: reel
M: 4/4
K: Edorian
|:B3 B BAFE|D2EF DEFA|BE ~E2 B3 c|dfeg fedc|
~B3 B BAFE|D2EF DEFA|BE ~E2 BABc|dfeg fedc:|
dfaf egfe|defd BAFB|dfff (3efg fe|dBAF E2 (3efg|
a3f egfe|defd edcd|B3A BAFA|dBAF E3z:|

